X:25
T:Zöld búzából barázdába
O:Oroszlány (Komárom), Balogh Vilmosné - Jankó Klára (37), 1952.07
M:4/4
L:1/4
Q:"Tempo guisto" 1/4=96
K:C
GcEG | A/A/G/G/ D>F | E<C C z | 
e>d c<c | c/c/F/A/ | A<G G z | 
e>d c<c | c<c F A/A/ | G/G/c/E/ G z | 
G c E G | A/A/G/G/ C/E/F/E/ | D<C C z |  

